public/img/logo.svg

<svg width="120" height="75" viewBox="0 0 120 75" fill="none" xmlns="http://www.w3.org/2000/svg">
<path d="M7.64984 62.4723L7.67672 62.4912H7.64905L7.64984 62.4723Z" fill="#1F4492"/>
<path d="M52.8672 17.7881V51.1098L46.8674 51.0945L46.8043 50.9255V51.0945L40.5779 46.9104V65.4891L26.3121 74.7877L12.261 65.3856V27.9267L6.06287 23.7798V57.0174L7.72029 58.1249L7.65227 62.3017L0 57.1815V17.1342H6.06287L12.261 21.2989V9.39404L26.317 0L40.641 9.39404L40.6062 27.7254H40.5414L40.5779 27.7634L37.6322 30.4019L34.413 27.491V9.55167L26.3218 4.21645L18.3425 9.55086V9.55167V65.2328L26.3121 70.5673L34.4105 65.3129V42.7651L23.322 35.3135V28.7326L46.8043 44.5136V17.9223L45.0311 16.7364V12.5442L52.8672 17.7881Z" fill="#1F4492"/>
<path d="M56.0969 36.2214H65.226C66.7474 36.2214 67.8526 36.565 68.5408 37.2521C69.2291 37.9392 69.5732 39.0426 69.5732 40.5616V42.7312C69.5732 44.2501 69.2291 45.3536 68.5408 46.0407C67.8526 46.7278 66.7474 47.0713 65.226 47.0713H60.0093V51.4123H56.0969V36.2214ZM65.66 40.5616C65.66 39.6934 65.2252 39.2593 64.3556 39.2593H60.0085V44.0335H64.3556C65.2252 44.0335 65.66 43.5994 65.66 42.7312V40.5616Z" fill="#1F4492"/>
<path d="M71.5286 36.2214H80.6577C82.1791 36.2214 83.2843 36.565 83.9725 37.2521C84.6607 37.9392 85.0049 39.0426 85.0049 40.5616V42.5146C85.0049 43.7158 84.8057 44.6487 84.4073 45.314C84.0089 45.9792 83.375 46.4206 82.5054 46.6381L85.2227 51.4123H80.984L78.4845 46.8555H75.4417V51.4123H71.5294V36.2214H71.5286ZM81.0925 40.5616C81.0925 39.6934 80.6577 39.2593 79.7881 39.2593H75.4409V43.8161H79.7881C80.6577 43.8161 81.0925 43.382 81.0925 42.5138V40.5616Z" fill="#1F4492"/>
<path d="M100.871 47.2885C100.871 48.8074 100.527 49.9109 99.839 50.598C99.1508 51.2851 98.0456 51.6286 96.5242 51.6286H91.0905C89.5691 51.6286 88.4639 51.2851 87.7756 50.598C87.0874 49.9109 86.7433 48.8074 86.7433 47.2885V40.3446C86.7433 38.8257 87.0874 37.7223 87.7756 37.0352C88.4639 36.3481 89.5691 36.0045 91.0905 36.0045H96.5242C98.0456 36.0045 99.1508 36.3481 99.839 37.0352C100.527 37.7223 100.871 38.8257 100.871 40.3446V47.2885ZM96.959 40.3446C96.959 39.4765 96.5242 39.0424 95.6546 39.0424H91.9592C91.0896 39.0424 90.6548 39.4765 90.6548 40.3446V47.2885C90.6548 48.1567 91.0896 48.5908 91.9592 48.5908H95.6546C96.5242 48.5908 96.959 48.1567 96.959 47.2885V40.3446Z" fill="#1F4492"/>
<path d="M116.086 42.9487L113.043 48.3736H110.001L106.958 42.9487V51.4123H103.045V36.2214H107.176L111.523 44.2509L115.87 36.2214H120V51.4123H116.088V42.9487H116.086Z" fill="#1F4492"/>
</svg>

<svg width="120" height="75" fill="none" xmlns="http://www.w3.org/2000/svg"><path d="M7.65 62.472l.027.02h-.028v-.02zm45.217-44.684V51.11l-6-.016-.063-.169v.17l-6.226-4.185v18.58l-14.266 9.298-14.051-9.402v-37.46L6.063 23.78v33.237l1.657 1.108-.068 4.177L0 57.182V17.133h6.063L12.26 21.3V9.394L26.317 0l14.324 9.394-.035 18.331h-.065l.037.038-2.946 2.639-3.219-2.911V9.551l-8.091-5.335-7.98 5.335v55.682l7.97 5.334 8.098-5.254V42.765l-11.088-7.452v-6.58l23.482 15.78v-26.59l-1.773-1.187v-4.192l7.836 5.244zm3.23 18.433h9.129c1.521 0 2.627.344 3.315 1.031.688.687 1.032 1.79 1.032 3.31v2.17c0 1.518-.344 2.622-1.032 3.309-.688.687-1.794 1.03-3.315 1.03h-5.217v4.341h-3.912v-15.19zm9.563 4.34c0-.868-.435-1.302-1.304-1.302h-4.347v4.774h4.347c.87 0 1.304-.434 1.304-1.302v-2.17zm5.869-4.34h9.129c1.521 0 2.626.344 3.314 1.031.689.687 1.033 1.79 1.033 3.31v1.953c0 1.2-.2 2.134-.598 2.799-.398.665-1.032 1.107-1.902 1.324l2.718 4.774h-4.239l-2.5-4.556h-3.042v4.556h-3.913v-15.19zm9.564 4.34c0-.868-.435-1.302-1.305-1.302h-4.347v4.557h4.347c.87 0 1.305-.434 1.305-1.302v-1.952zm19.778 6.727c0 1.52-.344 2.623-1.032 3.31-.688.687-1.793 1.03-3.315 1.03h-5.433c-1.522 0-2.627-.343-3.315-1.03-.689-.687-1.033-1.79-1.033-3.31v-6.943c0-1.52.344-2.623 1.033-3.31.688-.687 1.793-1.03 3.315-1.03h5.433c1.522 0 2.627.343 3.315 1.03.688.687 1.032 1.79 1.032 3.31v6.944zm-3.912-6.943c0-.868-.435-1.303-1.304-1.303h-3.696c-.87 0-1.304.434-1.304 1.303v6.944c0 .868.435 1.302 1.304 1.302h3.696c.87 0 1.304-.434 1.304-1.303v-6.943zm19.127 2.604l-3.043 5.425h-3.042l-3.043-5.425v8.463h-3.913v-15.19h4.131l4.347 8.029 4.347-8.03H120v15.191h-3.912V42.95h-.002z" fill="#1F4492"/></svg>
